icons/fill-new-tool-edit-magnifier-close.svg

<svg xmlns="http://www.w3.org/2000/svg" width="32px" height="32px" viewBox="0 0 32 32" version="1.1">
    <title>fill-new-tool-edit-magnifier-close</title>
    <g id="fill-new-tool-edit-magnifier-close" stroke-width="1" fill-rule="evenodd">
        <path d="M15,2 C22.1797017,2 28,7.82029825 28,15 C28,18.2296841 26.8222516,21.1842904 24.8728079,23.4577656 L29.7071068,28.2928932 C30.0976311,28.6834175 30.0976311,29.3165825 29.7071068,29.7071068 C29.3165825,30.0976311 28.6834175,30.0976311 28.2928932,29.7071068 L23.4577656,24.8728079 C21.1842904,26.8222516 18.2296841,28 15,28 C7.82029825,28 2,22.1797017 2,15 C2,7.82029825 7.82029825,2 15,2 Z M11.2928932,11.2928932 C10.9023689,11.6834175 10.9023689,12.3165825 11.2928932,12.7071068 L13.585,15 L11.2928932,17.2928932 C10.9324093,17.6533772 10.9046797,18.2206082 11.2097046,18.6128994 L11.2928932,18.7071068 C11.6834175,19.0976311 12.3165825,19.0976311 12.7071068,18.7071068 L15,16.415 L17.2928932,18.7071068 C17.6533772,19.0675907 18.2206082,19.0953203 18.6128994,18.7902954 L18.7071068,18.7071068 C19.0976311,18.3165825 19.0976311,17.6834175 18.7071068,17.2928932 L16.415,15 L18.7071068,12.7071068 C19.0675907,12.3466228 19.0953203,11.7793918 18.7902954,11.3871006 L18.7071068,11.2928932 C18.3165825,10.9023689 17.6834175,10.9023689 17.2928932,11.2928932 L15,13.585 L12.7071068,11.2928932 C12.3165825,10.9023689 11.6834175,10.9023689 11.2928932,11.2928932 Z" id="&#24418;&#29366;" />
    </g>
</svg>

<svg xmlns="http://www.w3.org/2000/svg" viewBox="0 0 32 32"><path fill="currentColor" d="M15 2c7.18 0 13 5.82 13 13 0 3.23-1.178 6.184-3.127 8.458l4.834 4.835a1 1 0 0 1-1.414 1.414l-4.835-4.834A12.949 12.949 0 0 1 15 28C7.82 28 2 22.18 2 15S7.82 2 15 2m-3.707 9.293a1 1 0 0 0 0 1.414L13.585 15l-2.292 2.293a1 1 0 0 0-.083 1.32l.083.094a1 1 0 0 0 1.414 0L15 16.415l2.293 2.292a1 1 0 0 0 1.32.083l.094-.083a1 1 0 0 0 0-1.414L16.415 15l2.292-2.293a1 1 0 0 0 .083-1.32l-.083-.094a1 1 0 0 0-1.414 0L15 13.585l-2.293-2.292a1 1 0 0 0-1.414 0"/></svg>
